X:1
T: Milladen
C:
R:Strathspey
Q: 128
K:D
M:4/4
L:1/16
|:F2|B4 d3B f3B d3B|A3c e3^g a4 e3c|B4 d3B c3^A B3G|F3E D3C B,4 B,2F2|
B4 d3B f3B d3B|A3c e3^g a4 e3c|B4 d3B c3^A B3g|f3e d3c B4:|
|:c4|d4 f3e d2f2 a2d'2|A4 c3B A2c2 e2a2|B4 d3c B2d2 f2b2|f3e d3c B4 B2c2|
d4 f3d ((3a2d2d'2) ((3a2f2d2) |A4 c3A ((3e2c2a2) ((3e2c2A2) |B4 d3B c3^A B3G|F3E D3C B,4:|
